X: 85
T:Johhny McGill
M:6/8
L:1/8
Q:120
S:Playford
K:F
f|cAA A>GF| cAA A2 f|cAA AGA|FDD D2 f|cAA A>GF |G3 AGA| FDD D2:|
|:c| f3 g2 f/2g/2|afd cAF| f3 g2 f/2g/2| afd d2 f/2g/2| afa geg|fde f2 d|cAF G2 A| FDD D2 :|

